svgs/sharp-solid/square-dashed-circle-plus.svg

<svg xmlns="http://www.w3.org/2000/svg" viewBox="0 0 576 512"><!--! Font Awesome Pro 6.6.0 by @fontawesome - https://fontawesome.com License - https://fontawesome.com/license (Commercial License) Copyright 2024 Fonticons, Inc. --><path d="M32 32L0 32 0 64l0 96 64 0 0-64 64 0 0-64L32 32zM0 192L0 320l64 0 0-128L0 192zM0 352l0 96 0 32 32 0 96 0 0-64-64 0 0-64L0 352zM432 192c5.4 0 10.7 .2 16 .7L448 64l0-32-32 0-96 0 0 64 64 0 0 102.6c15.3-4.3 31.4-6.6 48-6.6zM262.6 416L160 416l0 64 136.2 0c-15.3-18.5-26.9-40.2-33.6-64zM160 96l128 0 0-64L160 32l0 64zM432 512a144 144 0 1 0 0-288 144 144 0 1 0 0 288zm16-208l0 48 48 0 16 0 0 32-16 0-48 0 0 48 0 16-32 0 0-16 0-48-48 0-16 0 0-32 16 0 48 0 0-48 0-16 32 0 0 16z"/></svg>

<svg xmlns="http://www.w3.org/2000/svg" viewBox="0 0 576 512"><!--! Font Awesome Pro 6.4.2 by @fontawesome - https://fontawesome.com License - https://fontawesome.com/license (Commercial License) Copyright 2023 Fonticons, Inc. --><path d="M32 32H0V64v96H64V96h64V32H32zM0 192V320H64V192H0zM0 352v96 32H32h96V416H64V352H0zM432 192c5.4 0 10.7 .2 16 .7V64 32H416 320V96h64V198.6c15.3-4.3 31.4-6.6 48-6.6zM262.6 416H160v64H296.2c-15.3-18.5-26.9-40.2-33.6-64zM160 96H288V32H160V96zM432 512a144 144 0 1 0 0-288 144 144 0 1 0 0 288zm16-208v48h48 16v32H496 448v48 16H416V432 384H368 352V352h16 48V304 288h32v16z"/></svg>
